X:1
T:Title
%%score { ( 1 3 ) | ( 2 4 ) }
L:1/8
Q:1/4=100
M:4/4
K:Ab
V:1 treble nm="Grand Piano"
V:3 treble 
V:2 bass 
V:4 bass 
V:1
 [Ec]3 [Ec] [Fd]2 [Ec]2 | F2 z2 z4 | [A,EA]2 [A,EA]2 [DEG]2 [CEA]2 | B3 c B4 | %4
w: John~R.~Sweney * * *||||
 [Ec]3 [Ec] [Fd]2 [Ec]2 | BA[EG][DF] [CE]2 [EA][FB] | c2 c2 c2 B2 |[M:3/4] [CA]6 |[M:1/4] cd | %9
w: |||||
[M:4/4] e6 z2 | c6 z2 | [Bd]3 [Bd] [Ae]2 [Ac]2 | [GB]6 z2 | A6 z2 | z2 A,A, A,2 Ac | e3 c A2 B2 | %16
w: |||||||
[M:3/4] [CA]6 |] %17
w: |
V:2
 [A,,A,]3 [A,,A,] [A,,A,]2 [A,,A,]2 | [D,A,]2 z D A,,4 | C,2 C,2 B,,2 A,,2 | %3
 [E,G,E]3 [E,A,E] [E,G,E]4 | [A,,A,]3 [A,,A,] [A,,A,]2 [A,,A,]2 | %5
 [D,A,]2 [D,A,]2 [A,,A,]2 [C,A,][D,A,] | [E,A,E]2 [E,A,E]2 [E,G,E]2 [E,D]2 |[M:3/4] [A,,E,]6 | %8
[M:1/4] z2 |[M:4/4] z2[K:treble] [A,C][A,C] [A,C][A,EA][A,CE][A,DE] | %10
 [A,EA]2 [A,E][A,E] [A,E]2 [B,EG][A,EA] | [G,E]3 [G,E] [A,C]2 [A,E]2 | [E,E]2 E,E, E,2 ED | C4 z4 | %14
 [A,,A,]2 A,,A,, A,,2 [A,CE][A,CE] | [A,CE]3 [A,E] [E,A,C]2 [E,G,D]2 |[M:3/4] [A,,E,A,]6 |] %17
V:3
 x8 | BA[EG]F [A,CE]4 | x8 | x8 | x8 | F2 z2 z4 | x8 |[M:3/4] x6 |[M:1/4] x2 |[M:4/4] z2 AA AcAB | %10
 z2 AA A2 Bc | x8 | z2 EE E2 cB | z2 A,A, F[FB][FA][DF] | [CE]6 z2 | x8 |[M:3/4] x6 |] %17
V:4
 x8 | z2 [D,A,]2 z4 | x8 | x8 | x8 | x8 | x8 |[M:3/4] x6 |[M:1/4] x2 |[M:4/4] x2[K:treble] x6 | %10
 x8 | x8 | x8 | z2 A,,A,, [D,A,][D,D][D,D][D,A,] | x8 | x8 |[M:3/4] x6 |] %17

